X: 032221
T: Colclough's Hornpipe
S: Colclough Collection
N: Original hard to read
L: 1/16
M: 2/4
R: hornpipe
Q: 1/4=75
K: G
GA |B2G2 GABc |dBcA G2Bc |dBgf edcB |c2A2A2 GA|
B2G2 GABc |dBcA Gedc |BdBG AcAF |G2G2G2 :|
(3def|gdBd gbag |gdBg egfe |dBcA Bdeg |f2d2d2 ef |
gdBg dcge |dBGB cAec |ecdB cAGF |G2G2G2 :|
dc |BGdG BGdG |cAeA cAeA |BGdG BGdB |AGFE D2GA |
BGdG BGdG |cAeA cAfa |gfge dBAG |F2G2G2 :|
